!!!PDT:	1923
!!!LANG: Non-Tone
!!!LING_GROUP: Siouan
!!!REG: Dakotas
!!!COM: Anon.
!!!OTL: I will Bring the Wind
!!!ODT: <1918//
!!!MPN: Obsitamato [Bear-on-the-Flat, Flat Bear]
!!!MLC: Fort Berthold Reservation, North Dakota, United States of America
!! Song was recorded during either the summer of 1912, 1915, or 1918.
!!!AGN: monody
!!!SOCIAL_FUNCTION: Mandan and Hidatsa War Songs
!!!AMT: irregular
!!!RWG: Transcribed pitches, durations, and meters are only approximate.
!! Drum not recorded.
**kern
*ICvox
*Imale
*clefF4
*k[f#c#]
*M2/4
*MM80
8.d
16d
=1
4f#
(12f#
12e
12d)
=2
8f#
8d
8.d
16d
=3
16f#
8.d
(12B
12A
12A)
=4
8A
8F#
8F#
8D
=5
8A
[8A
8A]
[8F#
*M3/4
=6
8F#]
8E#
8F#
8E#
4D
*M2/4
=7
4.D
8D
=8
[2D
=9
4D]
8.d
16d
=10
4f#
(12f#
12e
12d)
=11
8.f#
8d
8.d
16d
=12
16f#
8.d
(12B
12A
12A)
=13
8A
8F#
8F#
8D
*M3/4
=14
16A
8.A
16B
16A
8A
(32A
16.F#)
8F#
=15
8.F#
16E#
8F#
8E#
4D
=16
2.D
==
*-
!!!CNT: Mandan
!!!TXO: Mandan
!!!OCY: United States
!!!OCL: Frances Densmore
!!!YOR: Frances Densmore, "Mandan and Hidatsa Music",
!!!YOR: Bulletin 80, page 150, No. 81
!!!PPR: Smithsonian Institution, Bureau of American Ethnology
!!!PPR: Government Printing Office
!!!PDT: 1923
!!!PPP: Washington, DC, United States of America
!!!YEC: Electronic Copyright 2000 David Huron
!!!YER: August 2000
!!!YEN: United States of America
!!!ENC: David Huron
!!!RDT: August 18, 2000
!!!EEV: Release 1.0
!!!AIN: tom, vox
